X:4
T:Tinternell
P:A BB C AAA BB C
C:Dallis Lute Book, c.1583
N:Transcribed by Lisa Koch; arr. Al Cofrin. Matches Pile 2018.
M:C
L:1/8
K:F major
P:A (3x second time only)
"Dm"F2 | "A"E3G "Dm"FEF2- | "C"FG2F E2"Dm"D2 | "A"^C2D2 "Asus4"DC/=B,/DC | "D"D4 D2 ::
P:B
"F"CD | "C"E2E2 "Dm"D4- | "A"D^C2D C2 :|\
P:C
"Dm"F2 | "C"E3D E2"Dm"F2 | "Gm"G3F E2D2 | "A"^C2"Dm"D2 "Em"E2"A7"C2 | "D"D4 D2 |]

